dist/svg/u1F6FC.svg

<?xml version="1.0" encoding="UTF-8"?><svg id="a" xmlns="http://www.w3.org/2000/svg" viewBox="0 0 40 40"><g><path d="M4.968,5.741L14.843,3.176c.617-.214,1.285,.146,1.444,.78l2.585,10.27c.212,.843,.887,1.49,1.738,1.667l8.485,1.761c4.439,.921,6.799,4.899,6.659,9.431H4.6l-.377-20.21c-.037-.503,.269-.968,.745-1.133Z" fill="#18a4a4"/><path d="M4.6,27.084h31.148v3.103H7.603c-1.657,0-3.003-1.346-3.003-3.003v-.1h0Z" fill="#956759"/><path d="M35.784,27.084l1.331,2.74c.327,.672-.003,1.479-.706,1.732l-2.36,.846c-.713,.255-1.488-.173-1.651-.913l-.834-3.793,4.221-.612Z" fill="#956759"/><circle cx="11.514" cy="33.16" r="5.047" fill="#313d4c"/><circle cx="28.979" cy="33.28" r="5.047" fill="#313d4c"/><rect x="12.33" y="12.692" width="7.682" height="2.907" rx="1.454" ry="1.454" transform="translate(-3.197 4.846) rotate(-15.529)" fill="#054f4f"/><rect x="10.832" y="7.726" width="7.682" height="2.907" rx="1.454" ry="1.454" transform="translate(-1.922 4.264) rotate(-15.529)" fill="#054f4f"/><path d="M17.92,16.498h3.441c1.539,0,2.788,1.249,2.788,2.788v.12h-6.229c-.802,0-1.454-.651-1.454-1.454h0c0-.802,.651-1.454,1.454-1.454Z" transform="translate(-6.775 16.858) rotate(-39.165)" fill="#054f4f"/><circle cx="11.514" cy="33.16" r="2.191" fill="#6b7683"/><circle cx="28.979" cy="33.16" r="2.191" fill="#6b7683"/></g><rect width="40" height="40" fill="none"/></svg>

<svg id="Layer_1" data-name="Layer 1" xmlns="http://www.w3.org/2000/svg" viewBox="0 0 40 40"><defs><style>.cls-1{fill:#18a4a4;}.cls-2{fill:#956759;}.cls-3{fill:#313d4c;}.cls-4{fill:#054f4f;}.cls-5{fill:#6b7683;}.cls-6{fill:none;}</style></defs><path class="cls-1" d="M4.968,5.741l9.875-2.565a1.114,1.114,0,0,1,1.445.78l2.585,10.269a2.266,2.266,0,0,0,1.739,1.667L29.1,17.653c4.439.922,6.8,4.9,6.658,9.431H4.6L4.223,6.874A1.114,1.114,0,0,1,4.968,5.741Z"/><path class="cls-2" d="M4.6,27.084H35.748a0,0,0,0,1,0,0v3.1a0,0,0,0,1,0,0H7.6a3,3,0,0,1-3-3v-.1A0,0,0,0,1,4.6,27.084Z"/><path class="cls-2" d="M35.784,27.084l1.33,2.74a1.255,1.255,0,0,1-.706,1.731l-2.36.846a1.256,1.256,0,0,1-1.651-.913L31.563,27.7Z"/><circle class="cls-3" cx="11.514" cy="33.16" r="5.047"/><circle class="cls-3" cx="28.979" cy="33.28" r="5.047"/><rect class="cls-4" x="12.33" y="12.692" width="7.682" height="2.907" rx="1.454" transform="translate(-3.197 4.846) rotate(-15.529)"/><rect class="cls-4" x="10.832" y="7.726" width="7.682" height="2.907" rx="1.454" transform="translate(-1.922 4.264) rotate(-15.529)"/><path class="cls-4" d="M17.92,16.5h3.441a2.788,2.788,0,0,1,2.788,2.788v.12a0,0,0,0,1,0,0H17.92a1.454,1.454,0,0,1-1.454-1.454v0A1.454,1.454,0,0,1,17.92,16.5Z" transform="translate(-6.775 16.858) rotate(-39.165)"/><circle class="cls-5" cx="11.514" cy="33.16" r="2.191"/><circle class="cls-5" cx="28.979" cy="33.16" r="2.191"/><rect class="cls-6" width="40" height="40"/></svg>
